X:16
T:Handelâ€™s Clarinet.2Parts. TLY.016
M:4/4
L:1/8
Q:1/4=120
C:by Handel?just guessing!
S:Wm.Tildesley,Swinton,Lancs.1860s.
R:.Air
O:England.
A:Lancashire.
N:Sorry â€“ canâ€™t decipher title â€“ possibly should be Handelâ€™s .
N:something.T.T.. Ed.Handes Clavriet in MS I Have taken to mean Handelâ€™s
N:Clarinet. CGP.
H:1860.
Z:vmp.Taz Tarry.
K:D
[V:1]|:a2f/2g/2a/2b/2 {f}â€trâ€e2dA|((3ded) (3efe â€œtrâ€f3 g/2a/2|\
bbba/2g/2 aaag/2f/2|!
[V:2]|:f2d/2e/2f/2g/2 {d}e2dD|((3FGF) ((3ABA) d3 e/2f/2|gggf/2e/2 fffe/2d/2|!
%
[V:1]gggf/2e/2 fffe|d/2e/2f/2g/2 ag/2f/2 b z g z|a z A z d4:|!
[V:2]eeed/2c/2 dddA|d/2c/2d/2e/2 fe/2d/2 g z e z|fz AzF4:|!
%
[V:1]|:a2|fAdf e/2d/2e/2f/2 ea|fAdf e3 a|â€trâ€a8|a6 a2|!
[V:2]|:a2|â€trâ€a8|a6a2|dAdf e/2d/2e/2f/2 ea|fAdf â€œtrâ€e4|(gf)(fe) (ed)(de)|!
%
[V:1](ba)(ag) (gf)fg|(ag)(gf) (fe) â€œtrâ€e2|\
d/2e/2f/2g/2 ag/2f/2 b z g z| a z Az d2:|
[V:2]feed (dA) â€œtrâ€A2|d/2e/2f/2e/2 fe/2d/2 g ze z|az Az G2:|

